assets/marketplace_swap.svg

<svg fill="none" height="28" viewBox="0 0 25 28" width="25" xmlns="http://www.w3.org/2000/svg" xmlns:xlink="http://www.w3.org/1999/xlink"><linearGradient id="a"><stop offset="0" stop-color="#35d6a3"/><stop offset=".47614" stop-color="#26b7ae"/><stop offset="1" stop-color="#179bd1"/></linearGradient><linearGradient id="b" gradientUnits="userSpaceOnUse" x1="-12.4672" x2=".557402" xlink:href="#a" y1="7.41254" y2="29.3188"/><linearGradient id="c" gradientUnits="userSpaceOnUse" x1="-12.4672" x2=".557404" xlink:href="#a" y1="20.5878" y2="42.494"/><path d="m5.01046 6.10108 4.24421-4.24421-1.85687-1.85687-7.3978 7.3978 7.3978 7.4273 1.85687-1.8569-4.24421-4.24399h19.92394v-2.62313z" fill="url(#b)"/><path d="m15.6798 15.0322 4.2442 4.244h-19.924v2.6231h19.924l-4.2442 4.2442 1.8568 1.8569 7.3978-7.3978-7.3978-7.4273z" fill="url(#c)"/></svg>

<svg width="25" height="28" viewBox="0 0 25 28" fill="none" xmlns="http://www.w3.org/2000/svg">
  <path d="M5.01046 6.10108L9.25467 1.85687L7.3978 0L0 7.3978L7.3978 14.8251L9.25467 12.9682L5.01046 8.72421H24.9344V6.10108H5.01046Z" fill="url(#paint0_linear_945_30131)"/>
  <path d="M15.6798 15.0322L19.924 19.2762H0V21.8993H19.924L15.6798 26.1435L17.5366 28.0004L24.9344 20.6026L17.5366 13.1753L15.6798 15.0322Z" fill="url(#paint1_linear_945_30131)"/>
  <defs>
    <linearGradient id="paint0_linear_945_30131" x1="-12.4672" y1="7.41254" x2="0.557402" y2="29.3188" gradientUnits="userSpaceOnUse">
      <stop stop-color="#35D6A3"/>
      <stop offset="0.47614" stop-color="#26B7AE"/>
      <stop offset="1" stop-color="#179BD1"/>
    </linearGradient>
    <linearGradient id="paint1_linear_945_30131" x1="-12.4672" y1="20.5878" x2="0.557404" y2="42.494" gradientUnits="userSpaceOnUse">
       <stop stop-color="#35D6A3"/>
       <stop offset="0.47614" stop-color="#26B7AE"/>
       <stop offset="1" stop-color="#179BD1"/>
    </linearGradient>
  </defs>
</svg>
